X: 395
P: Longways for as many as will
M: C|
L: 1/8
K: Dm
|:\
d2a2 a2g2 | f3e d2e2 | f2A2 A2^c2 | d4 d2e2 |\
f3g (e3d/e/) | f2c2 c2d2 | B3A G3F | F4 F4 :|
d2a2 a2g2 | f4 f4 | f2b2 b2(ag) | a4 a4 |\

